X:150
%%topmargin 3cm
T:Aberdeenshire Volunteers
C:James Scott Skinner
O:Scotland
B:Keith Norman MacDonald : "The Skye collection of the best reels & strathspeys extant" : 1887
Z:Ralph Palmer
R:Reel
M:C
L:1/8
K:D
A, | D<DF>B A<FF>A | B/2c/2d/2c/2 B/2A/2G/2F/2 G/2F/2E/2D/2 C<E | D<DF>B A<FF>A | ((3Bec) ((3ABc) ((3dAG) ((3FGE) |
D<DF>B A<FF>A | B/2c/2d/2c/2 B/2A/2G/2F/2 G/2F/2E/2D/2 C<E | D<DF>B A<FF>A | ((3Bec) ((3ABc) d2-d ||
A | cg f/2g/2a/2f/2 d<f | gd c<AA>c | dg f/2g/2a/2f/2 d>f | ((3efg) ((3ABc) d2 d>A |
dg f/2g/2a/2f/2 d<f | gd c<AA>c | ((3dfd) ((3cec) ((3BdB) ((3AGF) | ((3GAB) ((3ABc) [F2d2]-[Fd] |]
